src/fonts/icomoon/icons/lock.svg

<!-- Generated by IcoMoon.io -->
<svg version="1.1" xmlns="http://www.w3.org/2000/svg" width="819" height="1024" viewBox="0 0 819 1024">
<title></title>
<g id="icomoon-ignore">
</g>
<path d="M750.926 512.002c18.973 0 35.085 6.214 48.364 18.662 13.28 12.45 19.921 27.554 19.911 45.332v384.004c0 17.786-6.648 32.898-19.911 45.34-13.264 12.434-29.391 18.659-48.364 18.659h-682.659c-18.957 0-35.080-6.225-48.355-18.659-13.273-12.442-19.911-27.554-19.911-45.34v-384.006c0-17.78 6.635-32.899 19.911-45.334 13.276-12.433 29.398-18.661 48.355-18.661h22.753v-213.331c0-82.232 31.169-152.56 93.507-211.001 62.348-58.449 137.37-87.668 225.079-87.668 87.702 0 162.731 29.219 225.074 87.67 62.333 58.449 93.506 128.77 93.506 211.001 0 2.401-0.196 4.736-0.586 7.004v206.327h23.326zM591.069 512.002v-227.882c-3.329-40.9-20.915-76.271-52.759-106.12-35.545-33.331-78.454-49.997-128.705-49.997-50.256 0-93.156 16.668-128.717 49.997-35.558 33.335-53.339 73.552-53.339 120.671v213.331h363.519zM494.546 739.542c0-37.703-32.602-68.267-72.819-68.267s-72.819 30.564-72.819 68.267c0 25.273 14.65 47.34 36.424 59.141v66.036h72.818v-66.051c21.758-11.805 36.396-33.863 36.396-59.126z"></path>
</svg>

<svg xmlns="http://www.w3.org/2000/svg" width="819" height="1024"><path d="M750.926 512.002c18.973 0 35.085 6.214 48.364 18.662 13.28 12.45 19.921 27.554 19.911 45.332V960c0 17.786-6.648 32.898-19.911 45.34-13.264 12.434-29.391 18.659-48.364 18.659H68.267c-18.957 0-35.08-6.225-48.355-18.659C6.639 992.898.001 977.786.001 960V575.994c0-17.78 6.635-32.899 19.911-45.334 13.276-12.433 29.398-18.661 48.355-18.661H91.02V298.668c0-82.232 31.169-152.56 93.507-211.001C246.875 29.218 321.897-.001 409.606-.001c87.702 0 162.731 29.219 225.074 87.67 62.333 58.449 93.506 128.77 93.506 211.001 0 2.401-.196 4.736-.586 7.004v206.327h23.326zm-159.857 0V284.12c-3.329-40.9-20.915-76.271-52.759-106.12-35.545-33.331-78.454-49.997-128.705-49.997-50.256 0-93.156 16.668-128.717 49.997-35.558 33.335-53.339 73.552-53.339 120.671v213.331h363.519zm-96.523 227.54c0-37.703-32.602-68.267-72.819-68.267s-72.819 30.564-72.819 68.267c0 25.273 14.65 47.34 36.424 59.141v66.036h72.818v-66.051c21.758-11.805 36.396-33.863 36.396-59.126z"/></svg>
